X:1
T:Polska efter Blinda Jan
R:Polska
Z:C-G Magnusson, 2008-10-06
O:\~nr, Dalsland
N:J. Olsson: Femtio polskor frn Wermland och Dal (nr 42)
N:Spelas lngsamt
M:3/4
L:1/8
Q:104
K:Gm
G^f (3f=ef (3gag | (3^f=e^c (3de=f d2 | dc (3cAB (3cdc |1 (3BA^F (3GAB BG :|2 (3BA^F G2 z2 |
|: G>A AB B>d | d>c cA A>c | cA (3BAB (3cdc |1 (3BA^F (3GAB BG :|2 (3BA^F G2 z2 |]
